X: 119
T:Allen Water. HA.118
T:Duke Of Albanie's Tune,aka. HA.118
M:C
L:1/8
Q:160
S:Henry Atkinson's original MS,Hartburn,N'umberland,1694.
O:England
A:Hartburn,Northumberland
N:cf PFD Coll. of Scotch Tunes, full of the Highland Humours,1700..also
N:cf Duke of Albanie's Tune, Apollo's Banquet,1687..CGP.
H:1/8
Z:vmp.Chris Partington.Jan.2004
K:F
F3G A2 (fd)|(cA)(GF) G2 (FD)|(FD)(FG) (AG)(Ac)|(dc)(dF) A2f2|!
F3G A2 (fd)|(cA)(GF) G2 (FD)|(FD)(FG) (AG)(Ac)|(dc)(dF) A2"S"(fg)|!
(ag)(fd) (cA)(ag)|(fd)(cA) G2 (FD)|fgfd cAfd|cAcF A2|(fg)|!
(ag)(fd) (cA)(ag)|(fd)(cA) G2 (fd)|(cA)(GF) C3D|1F3GA2:|2F3Gf2|]
